X:1
T:Ormskirk Pace-Egging Song
S:Wilfred Mahood
B:Journal of the English Folk Dance Society, 1928
Z:Douglas Kennedy
M:3/4 %Meter
L:1/8 %
K:G
D2 |G2 G2 D2 |G2 G2 D2 |G2 A2 B2 |
d4 BB |A2 B2 c2 |d2 B2 G2 |F2 G2 E2 |
D4 dd |d2 d2 e2 |c2 B2 A2 |d2 B2 G2 |
A2 B2 G2 |A2 c2 A2 |d2 B2 G2 |A2 G2 FG |
AF D2 B2 |d4 Bc |dc B2 A2 |G4 z2 |]
Contact us
suse.folkinfo.org
